places/16/folder-git.svg

<?xml version="1.0" encoding="UTF-8" standalone="no"?>
<!-- Created with Inkscape (http://www.inkscape.org/) -->

<svg
   xmlns:dc="http://purl.org/dc/elements/1.1/"
   xmlns:cc="http://creativecommons.org/ns#"
   xmlns:rdf="http://www.w3.org/1999/02/22-rdf-syntax-ns#"
   xmlns:svg="http://www.w3.org/2000/svg"
   xmlns="http://www.w3.org/2000/svg"
   xmlns:sodipodi="http://sodipodi.sourceforge.net/DTD/sodipodi-0.dtd"
   xmlns:inkscape="http://www.inkscape.org/namespaces/inkscape"
   id="svg13094"
   height="16"
   width="16"
   version="1.1"
   inkscape:version="0.91+devel r"
   sodipodi:docname="folder-git.svg">
  <defs
     id="defs2989" />
  <sodipodi:namedview
     pagecolor="#ffffff"
     bordercolor="#666666"
     borderopacity="1"
     objecttolerance="10"
     gridtolerance="10"
     guidetolerance="10"
     inkscape:pageopacity="0"
     inkscape:pageshadow="2"
     inkscape:window-width="1920"
     inkscape:window-height="1032"
     id="namedview2987"
     showgrid="true"
     inkscape:zoom="41.7193"
     inkscape:cx="9.5158502"
     inkscape:cy="8.1858526"
     inkscape:window-x="-7"
     inkscape:window-y="25"
     inkscape:window-maximized="1"
     inkscape:current-layer="svg13094"
     inkscape:snap-bbox="false"
     inkscape:bbox-paths="true"
     inkscape:bbox-nodes="true"
     inkscape:snap-bbox-edge-midpoints="true"
     inkscape:snap-bbox-midpoints="true"
     inkscape:object-paths="true"
     inkscape:snap-intersection-paths="true"
     inkscape:object-nodes="true"
     inkscape:snap-smooth-nodes="true"
     inkscape:snap-midpoints="true"
     inkscape:snap-object-midpoints="true"
     inkscape:snap-center="true"
     inkscape:snap-nodes="true">
    <inkscape:grid
       type="xygrid"
       id="grid3750" />
  </sodipodi:namedview>
  <metadata
     id="metadata13099">
    <rdf:RDF>
      <cc:Work
         rdf:about="">
        <dc:format>image/svg+xml</dc:format>
        <dc:type
           rdf:resource="http://purl.org/dc/dcmitype/StillImage" />
        <dc:title></dc:title>
      </cc:Work>
    </rdf:RDF>
  </metadata>
  <path
     id="path4198"
     d="M 8,1 C 7.8001121,1 7.6004301,1.0773043 7.4472656,1.2304688 L 6.546875,2.1328125 12.414062,8 11,9.4140625 l -2,-2 L 9,12 7,12 7,5.4140625 5.1328125,3.546875 1.2304688,7.4472656 c -0.30632895,0.306329 -0.30632895,0.7991398 0,1.1054688 l 6.2167968,6.2167966 c 0.3063288,0.306329 0.7991398,0.30633 1.1054688,0 L 14.769531,8.5527344 c 0.30633,-0.306329 0.306329,-0.79914 0,-1.1054688 L 8.5527344,1.2304688 C 8.3995699,1.0773043 8.1998879,1 8,1 Z"
     style="color:#000000;display:inline;overflow:visible;visibility:visible;opacity:1;fill:#27303a;fill-opacity:0.753280819999999968;fill-rule:nonzero;stroke:none;stroke-width:2.38054228;stroke-linecap:butt;stroke-linejoin:miter;stroke-miterlimit:4;stroke-dasharray:none;stroke-dashoffset:0;stroke-opacity:1;marker:none;enable-background:accumulate"
     inkscape:connector-curvature="0" />
  <path
     style="color:#000000;font-style:normal;font-variant:normal;font-weight:normal;font-stretch:normal;font-size:medium;line-height:normal;font-family:sans-serif;text-indent:0;text-align:start;text-decoration:none;text-decoration-line:none;text-decoration-style:solid;text-decoration-color:#000000;letter-spacing:normal;word-spacing:normal;text-transform:none;direction:ltr;block-progression:tb;writing-mode:lr-tb;baseline-shift:baseline;text-anchor:start;white-space:normal;shape-padding:0;clip-rule:nonzero;display:inline;overflow:visible;visibility:visible;opacity:1;isolation:auto;mix-blend-mode:normal;color-interpolation:sRGB;color-interpolation-filters:linearRGB;solid-color:#000000;solid-opacity:1;fill:#f1f3f5;fill-opacity:0.90288714000000003;fill-rule:nonzero;stroke:none;stroke-width:2;stroke-linecap:butt;stroke-linejoin:miter;stroke-miterlimit:4;stroke-dasharray:none;stroke-dashoffset:0;stroke-opacity:1;marker:none;color-rendering:auto;image-rendering:auto;shape-rendering:auto;text-rendering:auto;enable-background:accumulate"
     d="M 8 -0.099609375 C 7.516504 -0.099609375 7.0302439 0.09280302 6.6699219 0.453125 L 5.1328125 1.9921875 L 4.9921875 2.1328125 L 0.453125 6.6699219 C -0.27031194 7.3933589 -0.27031194 8.6066411 0.453125 9.3300781 L 6.6699219 15.546875 C 7.3933582 16.270312 8.6066408 16.270315 9.3300781 15.546875 L 15.546875 9.3300781 C 16.270315 8.6066408 16.270312 7.3933582 15.546875 6.6699219 L 9.3300781 0.453125 C 8.9697561 0.09280302 8.483496 -0.099609375 8 -0.099609375 z M 8 1 C 8.1998879 1 8.3995699 1.0773043 8.5527344 1.2304688 L 14.769531 7.4472656 C 15.07586 7.7535944 15.075861 8.2464054 14.769531 8.5527344 L 8.5527344 14.769531 C 8.2464054 15.075861 7.7535944 15.07586 7.4472656 14.769531 L 1.2304688 8.5527344 C 0.9241398 8.2464054 0.9241398 7.7535946 1.2304688 7.4472656 L 5.1328125 3.546875 L 7 5.4140625 L 7 12 L 9 12 L 9 7.4140625 L 11 9.4140625 L 12.414062 8 L 6.546875 2.1328125 L 7.4472656 1.2304688 C 7.6004301 1.0773042 7.8001121 1 8 1 z "
     id="rect4180" />
</svg>

<?xml version="1.0" encoding="UTF-8"?>
<svg id="a" width="16" height="16" version="1.1" xmlns="http://www.w3.org/2000/svg" xmlns:cc="http://creativecommons.org/ns#" xmlns:dc="http://purl.org/dc/elements/1.1/" xmlns:rdf="http://www.w3.org/1999/02/22-rdf-syntax-ns#">
	<metadata id="c">
		<rdf:RDF>
			<cc:Work rdf:about="">
				<dc:format>image/svg+xml</dc:format>
				<dc:type rdf:resource="http://purl.org/dc/dcmitype/StillImage"/>
				<dc:title/>
			</cc:Work>
		</rdf:RDF>
	</metadata>
	<defs>
		<style id="current-color-scheme" type="text/css">.ColorScheme-Text {color:#090d11;}.ColorScheme-Background{color:#ffffff;}</style>
	</defs>
	<path id="b" d="m8 1c-0.19989 0-0.39957 0.077304-0.55273 0.23047l-0.90039 0.90234 5.8672 5.8672-1.4141 1.4141-2-2v4.5859h-2v-6.5859l-1.8672-1.8672-3.9023 3.9004c-0.30633 0.30633-0.30633 0.79914 0 1.1055l6.2168 6.2168c0.30633 0.30633 0.79914 0.30633 1.1055 0l6.2168-6.2168c0.30633-0.30633 0.30633-0.79914 0-1.1055l-6.2168-6.2168c-0.15316-0.15316-0.35285-0.23047-0.55273-0.23047z" style="fill-opacity:.75;fill:currentColor" class="ColorScheme-Text"/>
	<path id="d" d="m8-0.099609c-0.4835 0-0.96976 0.19241-1.3301 0.55273l-1.5371 1.5391-0.14062 0.14062-4.5391 4.5371c-0.72344 0.72344-0.72344 1.9367 0 2.6602l6.2168 6.2168c0.72344 0.72344 1.9367 0.72344 2.6602 0l6.2168-6.2168c0.72344-0.72344 0.72344-1.9367 0-2.6602l-6.2168-6.2168c-0.36032-0.36032-0.84658-0.55273-1.3301-0.55273zm0 1.0996c0.19989 0 0.39957 0.077304 0.55273 0.23047l6.2168 6.2168c0.30633 0.30633 0.30633 0.79914 0 1.1055l-6.2168 6.2168c-0.30633 0.30633-0.79914 0.30633-1.1055 0l-6.2168-6.2168c-0.30633-0.30633-0.30633-0.79914 0-1.1055l3.9023-3.9004 1.8672 1.8672v6.5859h2v-4.5859l2 2 1.4141-1.4141-5.8672-5.8672 0.90039-0.90234c0.15316-0.15316 0.35285-0.23047 0.55273-0.23047z" style="fill-opacity:.5;fill:currentColor" class="ColorScheme-Background"/>
</svg>
